assets/img/components/breadcrumbs.svg

<svg width="272" height="143" viewBox="0 0 272 143" fill="none" xmlns="http://www.w3.org/2000/svg">
<rect width="272" height="143" rx="8" fill="#EDEDED"/>
<path d="M37.9199 76.2656C37.9199 74.3326 39.4869 72.7656 41.4199 72.7656H110.688C112.621 72.7656 114.188 74.3326 114.188 76.2656C114.188 78.1986 112.621 79.7656 110.688 79.7656H41.4199C39.4869 79.7656 37.9199 78.1986 37.9199 76.2656Z" fill="#154973"/>
<path d="M157.812 76.2656C157.812 74.3326 159.38 72.7656 161.312 72.7656H230.58C232.513 72.7656 234.08 74.3326 234.08 76.2656C234.08 78.1986 232.513 79.7656 230.58 79.7656H161.312C159.379 79.7656 157.812 78.1986 157.812 76.2656Z" fill="#457AA5"/>
<path d="M137.777 76.1627L132.067 70.4525C131.798 70.184 131.664 69.8424 131.664 69.4276C131.664 69.0127 131.798 68.6711 132.067 68.4026C132.335 68.1342 132.677 68 133.092 68C133.507 68 133.848 68.1342 134.117 68.4026L140.852 75.1378C141.145 75.4306 141.291 75.7723 141.291 76.1627C141.291 76.5532 141.145 76.8948 140.852 77.1876L134.117 83.9228C133.848 84.1912 133.507 84.3254 133.092 84.3254C132.677 84.3254 132.335 84.1912 132.067 83.9228C131.798 83.6544 131.664 83.3127 131.664 82.8979C131.664 82.483 131.798 82.1414 132.067 81.873L137.777 76.1627Z" fill="#154973"/>
</svg>

<svg xmlns="http://www.w3.org/2000/svg" width="272" height="143" fill="none" viewBox="0 0 272 143"><rect width="272" height="143" fill="#ededed" rx="8"/><path fill="#154973" d="M37.92 76.266a3.5 3.5 0 0 1 3.5-3.5h69.268a3.5 3.5 0 1 1 0 7H41.42a3.5 3.5 0 0 1-3.5-3.5"/><path fill="#457aa5" d="M157.812 76.266a3.5 3.5 0 0 1 3.5-3.5h69.268a3.5 3.5 0 1 1 0 7h-69.268a3.5 3.5 0 0 1-3.5-3.5"/><path fill="#154973" d="m137.777 76.163-5.71-5.71q-.403-.403-.403-1.025 0-.623.403-1.025.402-.403 1.025-.403t1.025.403l6.735 6.735q.44.439.439 1.025 0 .585-.439 1.025l-6.735 6.735q-.403.402-1.025.402-.623 0-1.025-.402-.403-.403-.403-1.025 0-.623.403-1.025z"/></svg>
